public/primaries/BatteryCharged.svg

<svg id="Layer_1" data-name="Layer 1" xmlns="http://www.w3.org/2000/svg" width="64" height="64" viewBox="0 0 64 64"><defs><style>.cls-1{fill-rule:evenodd}</style></defs><title>Icons 200</title><path class="cls-1" d="M57 37a1 1 0 0 1-1-1v-8a1 1 0 0 1 1-1 3 3 0 0 1 3 3v4a3 3 0 0 1-3 3zm-7-17a4 4 0 0 1 4 4v16a4 4 0 0 1-4 4H10a4 4 0 0 1-4-4V24a4 4 0 0 1 4-4h40zM18 33h4c4.026 0 3.86 6 10 6h3v-3h5a1 1 0 1 0 0-2h-5v-4h5a1 1 0 0 0 0-2h-5v-3h-3c-6.14 0-5.974 6-10 6h-4a1 1 0 0 0 0 2z"/></svg>

<svg id="Layer_1" data-name="Layer 1" xmlns="http://www.w3.org/2000/svg" width="64" height="64" viewBox="0 0 64 64">
  <defs>
    <style>
      .cls-1 {
        fill-rule: evenodd;
      }
    </style>
  </defs>
  <title>Icons 200</title>
  <path class="cls-1" d="M57,37a1,1,0,0,1-1-1V28a1,1,0,0,1,1-1,3,3,0,0,1,3,3v4A3,3,0,0,1,57,37ZM50,20a4,4,0,0,1,4,4V40a4,4,0,0,1-4,4H10a4,4,0,0,1-4-4V24a4,4,0,0,1,4-4H50ZM18,33h4c4.0259,0,3.86,6,10,6h3V36h5a1,1,0,1,0,0-2H35V30h5a1,1,0,0,0,0-2H35V25H32c-6.14,0-5.974,6-10,6H18A1,1,0,0,0,18,33Z"/>
</svg>
